X: 1071
T: Mrs Minzies of Culdare's Strathspey
%R: air, strathspey
B: Niel Gow & Sons "A Collection of Strathspey Reels, etc." v.1 p.7 #1
Z: 2022 John Chambers <jc:trillian.mit.edu>
M: C
L: 1/8
Q: "Slow"
K: Bb
% = = = = = = = = = =
% Voice 1 reformatted for 2 6-bar lines, for compactness and proofreading.
V: 1 staves=2
d/c/ |\
BF (G/F/TE/)D/ BFBd | BF/B/ (G/F/E/)D/ {D}C2 Cd/c/ |\
BF (G/F/TE/)D/ F>GB>g | fdTc>d B2B :|\
g/(a/ |\
b)>fgb Tf>dBd | TcBdB G2 Gg/(a/ |
b)>fgb f>dBd | Tc>Bcd B2 Bg/(a/ ||\
b)>fgb fdBd | TcBdB G2-G>B |\
F>GBc B>cBb/g/ | fdTc>d B2B |]
% = = = = = = = = = =
% Voice 2 preserves the staff layout in the book.
V: 2 clef=bass middle=d
z | B2B2 B2B2 | B2B2 c2c2 | B2B2 B2B2 | f2F2 B2B :| z | b2b2 b2b2 | b2b2
e2e2 | b2b2 b2B2 | f2F2 B2B2 || b2b2 b2b2 | b2b2 e2e2 | B2B2 d2B2 | f2F2 B2B |]
